icon/cg/menu-right.svg

<svg viewBox="0 0 24 24" fill="none" xmlns="http://www.w3.org/2000/svg" height="1em" width="1em">
  <path d="M22 18.0048C22 18.5544 21.5544 19 21.0048 19H12.9952C12.4456 19 12 18.5544 12 18.0048C12 17.4552 12.4456 17.0096 12.9952 17.0096H21.0048C21.5544 17.0096 22 17.4552 22 18.0048Z" fill="currentColor"/>
  <path d="M22 12.0002C22 12.5499 21.5544 12.9954 21.0048 12.9954H2.99519C2.44556 12.9954 2 12.5499 2 12.0002C2 11.4506 2.44556 11.0051 2.99519 11.0051H21.0048C21.5544 11.0051 22 11.4506 22 12.0002Z" fill="currentColor"/>
  <path d="M21.0048 6.99039C21.5544 6.99039 22 6.54482 22 5.99519C22 5.44556 21.5544 5 21.0048 5H8.99519C8.44556 5 8 5.44556 8 5.99519C8 6.54482 8.44556 6.99039 8.99519 6.99039H21.0048Z" fill="currentColor"/>
</svg>

<svg width="24" height="24" fill="none" xmlns="http://www.w3.org/2000/svg"><path d="M22 18.005c0 .55-.446.995-.995.995h-8.01a.995.995 0 0 1 0-1.99h8.01c.55 0 .995.445.995.995ZM22 12c0 .55-.446.995-.995.995H2.995a.995.995 0 1 1 0-1.99h18.01c.55 0 .995.446.995.995ZM21.005 6.99a.995.995 0 0 0 0-1.99H8.995a.995.995 0 1 0 0 1.99h12.01Z" fill="currentColor"/></svg>
